X:1
T:Title
%%score { ( 1 3 ) | 2 }
L:1/8
Q:1/4=120
M:6/4
K:Ab
V:1 treble nm="Grand Piano"
V:3 treble 
V:2 bass 
V:1
 [CE]4 [DF]2 [CE]4 [Ec]2 | [=Dc]4 [DB]2 [DB]6 | E4 F2 E4 B2 | [CB]4 [CA]2 [CA]6 | %4
w: J.~Lincoln~Hall * * *||||
 [CE]4 [DF]2 [CE]4 [_Ge]2 | [Fe]4 [Fd]2 [Fd]6 | [Ec]4 [Fd]2 [Ec]4 [DB]2 | [CA]12 | e4 c2 A4 [GB]2 | %9
w: |||||
 [Ac]12 | [Ac]4 [A,FA]2 [A,F]4 [C=EG]2 | [FA-]6 A6 | [FA]2 [FA]2 [FA]2 [FB]2 [FA]2 [DF]2 | %13
w: ||||
[M:7/4] [CE]6 [_Ge]6 [Fd]>[Fd] |[M:6/4] [Ec]6 [DB]6 | [CA]12 |] %16
w: |||
V:2
 [A,,A,]4 [A,,A,]2 [A,,A,]4 [A,,A,]2 | [B,,A,]4 [B,,A,]2 [B,,A,]6 | %2
 [E,G,D]4 [E,G,D]2 [E,G,D]4 [E,G,D]2 | [A,,A,]4 [A,,A,]2 [A,,A,]6 | %4
 [A,,A,]4 [A,,A,]2 [A,,A,]4 [C,A,]2 | [D,A,]4 [D,A,]2 [D,A,]6 | [E,A,]4 [E,A,]2 [E,G,]4 [E,G,]2 | %7
 [A,,A,]12 | [A,CE]4 [A,CE]2 [F,CF]4 [E,E]2 | [A,E]4 A,2 A,6 | [F,A,]4 F,2 D,4 C,2 | %11
 F,4 C,2 [E,C]6 | [D,D]2 [D,D]2 [D,D]2 [D,D]2 [D,D]2 [D,A,]2 | %13
[M:7/4] [A,,A,]6 [C,A,]6 [D,A,]>[D,A,] |[M:6/4] [E,A,]6 [E,G,]6 | [A,,E,A,]12 |] %16
V:3
 x12 | x12 | x12 | x12 | x12 | x12 | x12 | x12 | x12 | z4 E2 E6 | x12 | C4 C2 _G6 | x12 | %13
[M:7/4] x14 |[M:6/4] x12 | x12 |] %16

